icons/arrow/arrow-up-2.svg

<svg width="14" height="14" viewBox="0 0 14 14" fill="none" xmlns="http://www.w3.org/2000/svg">
<path d="M9.35342 2.64648L11.3534 4.65039C11.5485 4.84581 11.5488 5.16234 11.3534 5.35742C11.158 5.55238 10.8415 5.55169 10.6464 5.35645L9.49991 4.20801V11C9.49991 11.2761 9.27605 11.5 8.99991 11.5C8.7238 11.5 8.49991 11.2761 8.49991 11V4.20801L7.35342 5.35645C7.15832 5.55166 6.84176 5.55241 6.64639 5.35742C6.63948 5.35052 6.63426 5.34216 6.62784 5.33496L5.49991 4.20703V11C5.49991 11.2761 5.27595 11.4999 4.99991 11.5C4.7239 11.4998 4.49991 11.276 4.49991 11V4.20508L3.34952 5.35352C3.15421 5.54841 2.83758 5.5485 2.64249 5.35352C2.44755 5.15817 2.44739 4.84157 2.64249 4.64648L4.64737 2.64648L5.00089 2.29297L5.35342 2.64648L7.00089 4.29395L8.64639 2.64648L8.99991 2.29199L9.35342 2.64648Z" fill="red"/>
</svg>

<svg xmlns="http://www.w3.org/2000/svg" width="14" height="14" fill="none" viewBox="0 0 14 14"><path fill="red" d="m9.353 2.646 2 2.004a.5.5 0 1 1-.707.706L9.5 4.208V11a.5.5 0 0 1-1 0V4.208L7.353 5.356a.5.5 0 0 1-.707.001q-.01-.01-.018-.022L5.5 4.207V11a.5.5 0 0 1-1 0V4.205L3.35 5.354a.5.5 0 0 1-.708-.708l2.005-2 .354-.353.352.353 1.648 1.648 1.645-1.648L9 2.292z"/></svg>
